src/resources/emergency/E059.svg

<svg height="300pt" viewBox="0 0 300.00003 299.99999" width="300.00003pt" xmlns="http://www.w3.org/2000/svg"><g fill-rule="evenodd" transform="translate(-50.61298 9.179993)"><path d="m59.573216 281.85977h282.079524v-282.06229014h-282.079524zm0 0" fill="#237f52"/><path d="m241.4049 45.707784h-81.58388v30.020926h81.58388zm0 40.05088h-81.58388v30.020926h81.58388zm0 70.071826h-81.58388v-30.03818h81.58388zm-81.58388 40.06812h81.58388v-30.0554h-81.58388zm81.58388 9.99546h-81.58388v30.02094h81.58388zm10.01272 50.54614v-231.223177h-10.01272v10.460795h-81.58388v-10.460795h-9.99546v231.223177h9.99546v-10.49524h81.58388v10.49524zm0 0" fill="#ecece7"/></g></svg>

<?xml version="1.0" encoding="UTF-8" standalone="no"?>
<svg
   height="282.06229pt"
   viewBox="0 0 282.07953 282.06228"
   width="282.07953pt"
   version="1.1"
   id="svg2"
   xmlns="http://www.w3.org/2000/svg"
   xmlns:svg="http://www.w3.org/2000/svg">
  <defs
     id="defs2" />
  <g
     fill-rule="evenodd"
     transform="translate(-59.573216,0.20252014)"
     id="g2">
    <path
       d="M 59.573216,281.85977 H 341.65274 V -0.20252014 H 59.573216 Z m 0,0"
       fill="#237f52"
       id="path1" />
    <path
       d="M 241.4049,45.707784 H 159.82102 V 75.72871 h 81.58388 z m 0,40.05088 h -81.58388 v 30.020926 h 81.58388 z m 0,70.071826 h -81.58388 v -30.03818 h 81.58388 z m -81.58388,40.06812 h 81.58388 v -30.0554 h -81.58388 z m 81.58388,9.99546 h -81.58388 v 30.02094 h 81.58388 z m 10.01272,50.54614 V 25.217033 H 241.4049 V 35.677828 H 159.82102 V 25.217033 h -9.99546 V 256.44021 h 9.99546 v -10.49524 h 81.58388 v 10.49524 z m 0,0"
       fill="#ecece7"
       id="path2" />
  </g>
</svg>
